X: 1
T: Blacksmith's Quadrille
%O: from Viola Ruth
B: Lee Owens "Advanced Square Dance Figures of the West and Southwest" p.27
R: jig
Z: 2010 John Chambers <jc:trillian.mit.edu>
M: 6/8
L: 1/8
Q: 3/8= "132-134 M.M."
K: D
|: "D"[AF][AF][AF] [BG][BG][BG] | [AF][AF][AF] f2(f/g/) |\
"A7"[ac][ac][ac] "A"[ec][ec][ec] | "A7"[ac][ac][ac] "D"[f3d3] |
[AF][AF][AF] [BG][BG][BG] | [AF][AF][AF] f2(f/g/) |\
"A"[ac][ac][ac] e(f/e/) |1 "D"[d3F3] [d3F3] :|2 "D"[d3F3] [d2F2] [K:=c] ||
|: [K:G] (e/f/) |\
"G"g3- g(fe) | d3- dcB | "D7"ABc ABc | f2e "G"d2(e/f/) |
g3- g(fe) | d3- dcB | "D7"ABc def |1 "G"g3- g2 :|2 "G"Mg3 Mg3 |]
%
W:       Call for Star in the Center, Sides Divide
W:
W:       Head Couples Star while the Sides divide;
W:       Right and Left Through the center and sides.
W:       Left-Hand Swing the Corners of the ring,
W:       Swing your own with a Two-Hand Swing,
W:       Swing and whirl that pretty little thing.
W:       Head Coples Star while the Sides divide;
W:       Rithe and Left Through the center and sides.
W:       Left-Hand Swing the Corners of the ring, and
W:       Promenade that pretty little thing that's
W:       Slim around the waist and pretty in the face,
W:       Take your Honey back to place, and
W:       Square your sets with a smile on your face.
W:
W:    Repeat the call three times more with the Head Couples forming the Star while the Side Couples
W: separate; then four times with the Side Couples forming the Star while the Head Couples separate,
W: changing the wording of the call to conform. Eight changes in all %%endtext

%%sep 1 1 500

